X: 18012
T: Hughie's Cap
R: reel
M: 4/4
K: Fmajor

FG|:"Dm"A2 de fedc|AF 3FEF "Gm"DGGB|"Dm"A2 de f2 df|"Am"ec 3c=Bc "Am7"agfe|
"Dm"A2 de fedc|AGFE FD"Am"EC|"Dm"A,DDE FGAd|1 cA"Am7"GE "Dm"F2 FG:|2 cAGE FGA=B||
|:"F"c2 AF A=B"D7"cA|"G"d2 =BG =Bc"G7"df|"C"ec 3cBc "Am7"agfe|"Dm"fagf dcA=B|
"F"c2 AF A=B"D7"cA|"G"d2 =BG =Bc"G7"df|"C"ec 3cBc "Am7"agfe|1 "Dm"fd"Am7"cA "Dm"FGA=B:|2 fdcA F2 "F"FG:|

